X:0951
T:Lady Mary Ann.
M:C
L:1/8
Q:1/4=100
I: ||
N:Bar 6 is printed |dde/f/ F3 ED|
Z:Jack Campin * www.campin.me.uk * 2009
K:B Minor
D2  |FEFA GFED|AFAB  A3\
A   |dcde dcBA|FEFA  B3
B   |d2cB d2cB|ddef  F3\
E/D/|AFED E2AG|F2B>c B2|]
<end>
<start>
